brandFactory_export/2.Regular/Jeringuilla _2Regular.svg

<?xml version="1.0" encoding="UTF-8"?>
<svg width="24px" height="24px" viewBox="0 0 24 24" version="1.1" xmlns="http://www.w3.org/2000/svg" xmlns:xlink="http://www.w3.org/1999/xlink">
    <title>2.Regular/Jeringuilla _2Regular</title>
    <g id="Symbols" stroke="none" stroke-width="1" fill="none" fill-rule="evenodd">
        <g id="2.Regular/Jeringuilla-_2Regular" fill="#5CB615" fill-rule="nonzero">
            <path d="M18.7932773,6.29915966 L17.3848739,4.88067227 L20.0537815,2.19159664 L21.4621849,3.61008403 L18.7932773,6.29915966 L18.7932773,6.29915966 Z M9.65714286,17.9831933 L5.89579832,14.1848739 L6.63529412,13.4319328 L8.83361345,15.6436975 C8.96134454,15.7714286 9.11932773,15.8319328 9.28739496,15.8319328 C9.45546218,15.8319328 9.61344538,15.7714286 9.74117647,15.6436975 C9.98655462,15.394958 9.98655462,14.9882353 9.74117647,14.7394958 L7.54285714,12.5277311 L8.72605042,11.3277311 L10.1747899,12.7663866 C10.302521,12.8840336 10.4705882,12.9546218 10.6252101,12.9546218 C10.7932773,12.9546218 10.9613445,12.8840336 11.0789916,12.7563025 C11.3344538,12.507563 11.3243697,12.1008403 11.0789916,11.8453782 L9.6302521,10.4168067 L11.1563025,8.8907563 L13.5966387,11.3613445 C13.7243697,11.4789916 13.892437,11.5495798 14.0504202,11.5495798 C14.2184874,11.5495798 14.3865546,11.4789916 14.5042017,11.3613445 C14.7596639,11.102521 14.7596639,10.6957983 14.5042017,10.4504202 L12.0504202,7.97983193 L13.5764706,6.44369748 L14.9243697,7.79159664 C15.0521008,7.9092437 15.2201681,7.9697479 15.3781513,7.9697479 C15.5462185,7.9697479 15.7142857,7.9092437 15.8319328,7.78151261 C16.087395,7.52268908 16.0773109,7.11596639 15.8319328,6.86722689 L14.4806723,5.5394958 L15.210084,4.79663866 L18.9815126,8.59495798 L9.65714286,17.9831933 Z M6.95798319,17.4184874 L6.21176471,18.1714286 L5.53277311,17.4857143 L6.28235294,16.7226891 C6.29243697,16.712605 6.29243697,16.702521 6.30252101,16.692437 L6.99159664,17.394958 C6.97815126,17.4084034 6.96806723,17.4084034 6.95798319,17.4184874 L6.95798319,17.4184874 Z M23.4016807,3.46218487 L20.2117647,0.248739496 C19.9260504,-0.0403361345 19.4655462,-0.0403361345 19.1697479,0.248739496 C18.9411765,0.477310924 18.9042017,0.823529412 19.0420168,1.10252101 L16.3428571,3.83193277 L15.0218487,2.50420168 C14.7361345,2.20504202 14.2621849,2.20504202 13.9764706,2.50420168 C13.6907563,2.79327731 13.6907563,3.26722689 13.9764706,3.55630252 L14.1647059,3.74453782 L4.32941176,13.6638655 C4.03361345,13.9529412 4.03361345,14.4268908 4.32941176,14.7159664 L5.26386555,15.6571429 C5.25378151,15.6672269 5.24369748,15.6672269 5.23361345,15.6773109 L3.96302521,16.9680672 C3.66722689,17.2571429 3.66722689,17.7310924 3.96302521,18.0201681 L4.25882353,18.3193277 L0.21512605,22.3865546 C-0.0705882353,22.6756303 -0.0705882353,23.1495798 0.21512605,23.4386555 C0.36302521,23.5865546 0.551260504,23.6571429 0.736134454,23.6571429 C0.931092437,23.6571429 1.11932773,23.5865546 1.25714286,23.4386555 L5.30420168,19.3613445 L5.68739496,19.7478992 C5.82521008,19.8957983 6.02352941,19.9663866 6.21176471,19.9663866 C6.4,19.9663866 6.58487395,19.8957983 6.73277311,19.7478992 L8.00336134,18.4672269 C8.01344538,18.4571429 8.01344538,18.4470588 8.02352941,18.4369748 L9.13613445,19.5563025 C9.28403361,19.6941176 9.47226891,19.7747899 9.6605042,19.7747899 C9.8487395,19.7747899 10.0436975,19.6941176 10.1815126,19.5563025 L20.0268908,9.63697479 L20.2420168,9.85546218 C20.389916,9.99327731 20.5781513,10.0739496 20.7630252,10.0739496 C20.9478992,10.0739496 21.1361345,9.99327731 21.2840336,9.85546218 C21.5697479,9.55630252 21.5697479,9.09243697 21.2840336,8.80336134 L19.8386555,7.34453782 L22.5378151,4.62521008 C22.6453782,4.68571429 22.7630252,4.72268908 22.8806723,4.72268908 C23.0789916,4.72268908 23.2672269,4.65210084 23.405042,4.50420168 C23.697479,4.22521008 23.697479,3.7512605 23.4016807,3.46218487 Z" id="Jeringuilla-_2Regular"></path>
        </g>
    </g>
</svg>

<svg width="24" height="24" viewBox="0 0 24 24" xmlns="http://www.w3.org/2000/svg"><path d="M18.793 6.3l-1.408-1.42 2.669-2.688 1.408 1.418-2.669 2.69zM9.657 17.982l-3.761-3.798.74-.753 2.198 2.212a.628.628 0 00.453.188c.168 0 .326-.06.454-.188a.647.647 0 000-.905l-2.198-2.211 1.183-1.2 1.449 1.438a.69.69 0 00.45.189c.168 0 .336-.071.454-.199a.646.646 0 000-.91l-1.449-1.43 1.526-1.525 2.44 2.47a.691.691 0 00.454.189c.168 0 .337-.071.454-.189a.637.637 0 000-.91L12.05 7.98l1.526-1.536 1.348 1.348a.68.68 0 00.454.178c.168 0 .336-.06.454-.188a.65.65 0 000-.915L14.48 5.54l.73-.742 3.77 3.798-9.324 9.388zm-2.699-.565l-.746.753-.68-.685.75-.763c.01-.01.01-.02.02-.03l.69.702c-.014.013-.024.013-.034.023zM23.402 3.462L20.212.25a.734.734 0 00-1.042 0 .741.741 0 00-.128.854l-2.7 2.729-1.32-1.328a.721.721 0 00-1.046 0 .753.753 0 000 1.052l.189.189-9.836 9.919a.735.735 0 000 1.052l.935.941c-.01.01-.02.01-.03.02l-1.271 1.291a.735.735 0 000 1.052l.296.3-4.044 4.067a.753.753 0 000 1.052.734.734 0 001.042 0l4.047-4.078.383.387a.719.719 0 00.525.218c.188 0 .373-.07.52-.218l1.271-1.28c.01-.01.01-.02.02-.031l1.113 1.12a.78.78 0 00.525.218c.188 0 .383-.08.52-.219l9.846-9.919.215.218a.779.779 0 00.521.219c.185 0 .373-.08.521-.219a.753.753 0 000-1.052l-1.445-1.458 2.699-2.72a.706.706 0 00.867-.12.726.726 0 00-.003-1.043z" fill="#5CB615" fill-rule="nonzero"/></svg>
